packages/icons/web/flag_es_small.svg

<svg width="24" height="24" viewBox="0 0 24 24" fill="none" xmlns="http://www.w3.org/2000/svg">
<path fill-rule="evenodd" clip-rule="evenodd" d="M5.5 6H18.5C19.6046 6 20.5 6.89543 20.5 8V16C20.5 17.1046 19.6046 18 18.5 18H5.5C4.39543 18 3.5 17.1046 3.5 16V8C3.5 6.89543 4.39543 6 5.5 6ZM5.5 6.5C4.67157 6.5 4 7.17157 4 8V16C4 16.8284 4.67157 17.5 5.5 17.5H18.5C19.3284 17.5 20 16.8284 20 16V8C20 7.17157 19.3284 6.5 18.5 6.5H5.5Z" fill="#D8DDE1"/>
<g clip-path="url(#clip0)">
<path fill-rule="evenodd" clip-rule="evenodd" d="M4 14.831H20V9.16919H4V14.831Z" fill="#FFC400"/>
<path fill-rule="evenodd" clip-rule="evenodd" d="M4 9.16912H20V7.83456C20 7.09748 19.4092 6.5 18.6805 6.5H5.31952C4.59072 6.5 4 7.09732 4 7.83456V9.16912ZM4 14.8309H20V16.1654C20 16.9025 19.4092 17.5 18.6805 17.5H5.31952C4.59072 17.5 4 16.9027 4 16.1654V14.8309Z" fill="#C60B1E"/>
</g>
<defs>
<clipPath id="clip0">
<rect x="4" y="6.5" width="16" height="11" fill="white"/>
</clipPath>
</defs>
</svg>

<svg width="24" height="24" fill="none" xmlns="http://www.w3.org/2000/svg">
    <path fill-rule="evenodd" clip-rule="evenodd" d="M5.5 6h13a2 2 0 012 2v8a2 2 0 01-2 2h-13a2 2 0 01-2-2V8a2 2 0 012-2zm0 .5A1.5 1.5 0 004 8v8a1.5 1.5 0 001.5 1.5h13A1.5 1.5 0 0020 16V8a1.5 1.5 0 00-1.5-1.5h-13z" fill="#D8DDE1"/>
    <g clip-path="url(#clip0)" fill-rule="evenodd" clip-rule="evenodd">
        <path d="M4 14.831h16V9.169H4v5.662z" fill="#FFC400"/>
        <path d="M4 9.17h16V7.834c0-.738-.59-1.335-1.32-1.335H5.32C4.59 6.5 4 7.097 4 7.835v1.334zm0 5.66h16v1.335c0 .738-.59 1.335-1.32 1.335H5.32c-.73 0-1.32-.597-1.32-1.335v-1.334z" fill="#C60B1E"/>
    </g>
    <defs>
        <clipPath id="clip0">
            <path fill="#fff" d="M4 6.5h16v11H4z"/>
        </clipPath>
    </defs>
</svg>
